src/render/svg/masaike.svg

<svg viewBox="0 0 1024 1024" version="1.1" xmlns="http://www.w3.org/2000/svg">
  <path
    d="M128 810.666667V213.333333q0-85.333333 85.333333-85.333333h597.333334q85.333333 0 85.333333 85.333333v597.333334q0 85.333333-85.333333 85.333333H213.333333q-85.333333 0-85.333333-85.333333zM213.333333 213.333333v597.333334h597.333334V213.333333H213.333333z m42.666667 277.333334v-213.333334a21.333333 21.333333 0 0 1 21.333333-21.333333h213.333334a21.333333 21.333333 0 0 1 21.333333 21.333333v213.333334a21.333333 21.333333 0 0 1-21.333333 21.333333h-213.333334a21.333333 21.333333 0 0 1-21.333333-21.333333z m256 256v-213.333334a21.333333 21.333333 0 0 1 21.333333-21.333333h213.333334a21.333333 21.333333 0 0 1 21.333333 21.333333v213.333334a21.333333 21.333333 0 0 1-21.333333 21.333333h-213.333334a21.333333 21.333333 0 0 1-21.333333-21.333333z">
  </path>
</svg>

<svg xmlns="http://www.w3.org/2000/svg" viewBox="0 0 1024 1024">
    <path d="M128 810.66667V213.33333Q128 128 213.33333 128h597.33334Q896 128 896 213.33333v597.33334Q896 896 810.66667 896H213.33333Q128 896 128 810.66667m85.33333-597.33334v597.33334h597.33334V213.33333zM256 490.66667V277.33333A21.33333 21.33333 0 0 1 277.33333 256h213.33334A21.33333 21.33333 0 0 1 512 277.33333v213.33334A21.33333 21.33333 0 0 1 490.66667 512H277.33333A21.33333 21.33333 0 0 1 256 490.66667m256 256V533.33333A21.33333 21.33333 0 0 1 533.33333 512h213.33334A21.33333 21.33333 0 0 1 768 533.33333v213.33334A21.33333 21.33333 0 0 1 746.66667 768H533.33333A21.33333 21.33333 0 0 1 512 746.66667"/>
</svg>
